X:220
T: NICHT WEIT VON WUERTEMBERG
N: E1359
O: Europa, Mitteleuropa, Deutschland, Hessen, Darmstadt;
R: Staende -, Soldaten -, Kriegs - Lied
M: 4/4
L: 1/8
K: Eb
B,2 | E3FGABc | Bee2z2
Be | d3cBAcB | G4z2
B,2 | E3FGABc | Bee2z2
Be | d3cBAcB | G4z3
B | FBA3F | GcB3
G | FBA3F | GcB2
B,2 | E3FGABc | Bee2z2
Be | d3cBAcB | G4z2

